X:1
T:The Concertina Reel
R: reel
O:Trad. (11.9.2013/NS)
M:4/4
L:1/8
K:Dmaj
|:"D"A2FA BAFA|A2FA BAFA|"G"B2cA BAcA|BAcA BAFG|
"D"A2FA BAFA|A2FA BAFE|"G"FABc d2dB|"A"AFEF "D"D4:|
|:"D"Ad ~d2 Ad ~d2|"D/F#"AddA BAFA|"G"B2cA BAcA|"A"BAcA BAFG|
"D"Ad ~d2 "D/C#"Ad ~d2|"G/B"Addc "A"d3B|"G"A2FA BcdB|"A"AFEF "D"D4:|
